numeric-5-box.svg

<svg fill="currentColor" viewBox="0 0 24 24"><path d="M15 9h-4v2h2a2 2 0 0 1 2 2v2a2 2 0 0 1-2 2H9v-2h4v-2H9V7h6m4-4H5a2 2 0 0 0-2 2v14a2 2 0 0 0 2 2h14a2 2 0 0 0 2-2V5a2 2 0 0 0-2-2"/></svg>

<svg  viewBox="0 0 24 24" fill="currentColor"><path  d="M15,9H11V11H13A2,2 0 0,1 15,13V15C15,16.11 14.1,17 13,17H9V15H13V13H9V7H15M19,3H5A2,2 0 0,0 3,5V19A2,2 0 0,0 5,21H19A2,2 0 0,0 21,19V5A2,2 0 0,0 19,3Z"/></svg>
